X:218
T:Stranger from America - Treise
%%VWML:SBG-1-2-351-0
F:http://www.vwml.org/record/SBG/1/2/351
Z:Original Sibelius transcriptions by M. & S. Graebe
M:3/4
I:linebreak $
K:F
V:1 treble nm="P1"
V:1
 FA | c3 ABd | dc A2 Ac | c3 BGE |"^...... 1st ......" F3 z2 z :|"^...... 2nd ....." F2 z2 c2 | %6
 f3 dfd |$ dc A2 Ac | f3 edf | c2 z2 FA | c3 ABd | dc c2 F2 | A3 GFE | F6 | %14
T:Stranger from America - Stokoe
F:http://www.vwml.org/record/SBG/1/2/351
Z:Original Sibelius transcriptions by M. & S. Graebe
M:3/4
I:linebreak $
K:C
V:1 treble nm="P1"
V:1
 E F | G2 E2 c c | df e2 d d | c c G2 E2 | F4 E G | c2 c2 A2 | G2 E2 G2 | G2 F2 D2 | C4 E F |$ %9
 G2 E2 c d | ec df e d | c c G2 E2 | F4 E G | c3 B c A | G2 E2 G2 | G G F2 D2 | C4 x2 | %17
T:Stranger from America - Fone
F:http://www.vwml.org/record/SBG/1/2/351
Z:Original Sibelius transcriptions by M. & S. Graebe
L:1/8
M:3/4
I:linebreak $
K:C
V:1 treble nm="P1"
V:2 treble nm="P2"
L:1/4
V:1
 G2 AB | c2 G2 BA | GE C3 G | A2 B2 A2 | C4 C2 | E2 G2 B2 | e2 d2 ed | c2 G2 BA |$ G4 CE | %9
 E2 G2 c2 | e2 d2 ed | c2 G2 ed | c4 ed |$ c2 G2 BA | GE C2 E2 | G2 AG BA | C6 | %17
V:2
"^or else" z e | a g f | e/A/ C3/2 G/ | A B A | C2 D/C/ | B, D G | B/A/ G (3G/A/B/ | c G B/ z/ |$ %8
 z3 | z3 | z3 | z3 | z3 |$ z3 | z3 | z3 | z3 | %17

